X:1
T:Title
%%score { ( 1 3 ) | 2 }
L:1/8
M:4/4
K:Ab
V:1 treble nm="Grand Piano"
V:3 treble 
V:2 bass 
V:1
 z4 z2 z[Q:1/4=86] [CE] | [Ec][Ec][DB][Fd] [Ec]2 [EA][EA] |[M:7/8] BBA F [CE]3 |[M:1/8] [CE] | %4
[M:4/4] [Ec][Ec][DB][Fd] [Ec]2 [EA][Ec] |[M:7/8] [EB][EB][=DB]>[Dc] B3 |[M:1/8] c | %7
[M:4/4] eeec d2 cB |[M:7/8] AAB c [Fd]3 |[M:1/8] [DF] |[M:4/4] [Fd][Fd][Fc][FB] [Ec]2 [EA][EA] | %11
[M:7/8] BBc>B [CA]3 |[M:1/8] E |[M:4/4] z D d->[Fd-] [Fd]3 F | z C c->[Ec-] [Ec]3 c | %15
 eeec d c2 [GB] | A2 z2 z4 | z D d->[Fd-] [Fd]3 F |[M:7/8] z Cc->[Ec-] [Ec]3 |[M:1/8] c | %20
[M:4/4] eeec B A2 [FB] |[M:7/8] cdc>B [CEA]3 |] %22
V:2
 z4 z2 z [A,,A,] | [A,,A,][A,,A,][A,,A,][A,,A,] [A,,A,]2 [C,A,][C,A,] | %2
[M:7/8] [D,F,D][D,F,D][D,F,D] [D,A,D] [A,,A,]3 |[M:1/8] [A,,A,] | %4
[M:4/4] [A,,A,][A,,A,][A,,A,][A,,A,] [A,,A,]2 [C,A,][A,,A,] | %5
[M:7/8] [B,,G,][B,,G,][B,,A,]>[B,,A,] [E,G,E]3 |[M:1/8] [A,E] | %7
[M:4/4] [A,CE][A,CE][A,CE][A,E] [G,B,E]2 [A,E][E,G,E] | %8
[M:7/8] [F,A,C][F,A,C][E,G,E] [A,_G] [D,A,]3 |[M:1/8] [D,A,] | %10
[M:4/4] [D,A,][D,A,][D,A,][D,A,] [A,,A,]2 [C,A,][C,A,] | %11
[M:7/8] [E,G,E][E,G,E][E,A,E]>[E,G,D] [A,,A,]3 |[M:1/8] z |[M:4/4] z [D,A,] [D,A,]>[D,A,] [D,A,]4 | %14
 z [A,,A,] [A,,A,]>[A,,A,] [A,,A,]3[K:treble] [A,E] | %15
 [A,CA][A,CA][A,CA][A,E][K:bass] [G,B,E] [A,E]2 [E,D] | [F,C][F,C] B,,>B,, E,4 | %17
 z [D,A,] [D,A,]>[D,A,] [D,A,]4 |[M:7/8] z [A,,A,][A,,A,]>[A,,A,] [A,,A,]3 |[M:1/8] [A,E] | %20
[M:4/4][K:treble] [A,CA][A,CA][A,CA][K:bass][A,E] [E,G,D] [F,A,C]2 [D,A,] | %21
[M:7/8] [E,A,E][E,B,E][E,A,E]>[E,DE] A,,3 |] %22
V:3
 x8 | x8 |[M:7/8] x7 |[M:1/8] x |[M:4/4] x8 |[M:7/8] x7 |[M:1/8] x |[M:4/4] x8 |[M:7/8] x7 | %9
[M:1/8] x |[M:4/4] x8 |[M:7/8] x7 |[M:1/8] x |[M:4/4] F2 F2 z4 | E2 E2 z4 | x8 | %16
 z F [=DAB]>[DAc] [_DGB]3 E | F2 F2 z4 |[M:7/8] E2 E2 z z2 |[M:1/8] x |[M:4/4] x8 |[M:7/8] x7 |] %22

